icon-themes/breeze_svg/cmd/lc_bullet.svg

<svg viewBox="0 0 24 24" xmlns="http://www.w3.org/2000/svg"><path d="m7.5 4c-1.9329966 0-3.5 1.5670034-3.5 3.5s1.5670034 3.5 3.5 3.5h2.5v2h-2.5c-1.9329966 0-3.5 1.567003-3.5 3.5s1.5670034 3.5 3.5 3.5 3.5-1.567003 3.5-3.5v-2.5h2v2.5c0 1.932997 1.567003 3.5 3.5 3.5s3.5-1.567003 3.5-3.5-1.567003-3.5-3.5-3.5h-2.5v-2h2.5c1.932997 0 3.5-1.5670034 3.5-3.5s-1.567003-3.5-3.5-3.5-3.5 1.5670034-3.5 3.5v2.5h-2v-2.5c0-1.9329966-1.5670034-3.5-3.5-3.5zm0 1c1.3807119 0 2.5 1.1192881 2.5 2.5v2.5h-2.5c-1.3807119 0-2.5-1.1192881-2.5-2.5s1.1192881-2.5 2.5-2.5zm9 0c1.380712 0 2.5 1.1192881 2.5 2.5s-1.119288 2.5-2.5 2.5h-2.5v-2.5c0-1.3807119 1.119288-2.5 2.5-2.5zm-5.5 6h2v2h-2zm-3.5 3h2.5v2.5c0 1.380712-1.1192881 2.5-2.5 2.5s-2.5-1.119288-2.5-2.5 1.1192881-2.5 2.5-2.5zm6.5 0h2.5c1.380712 0 2.5 1.119288 2.5 2.5s-1.119288 2.5-2.5 2.5-2.5-1.119288-2.5-2.5z" fill="#4d4d4d"/></svg>

<svg xmlns="http://www.w3.org/2000/svg" viewBox="0 0 24 24">
 <path 
     style="fill:#4d4d4d" 
     d="M 7.5 4 C 5.5670034 4 4 5.5670034 4 7.5 C 4 9.4329966 5.5670034 11 7.5 11 L 10 11 L 10 13 L 7.5 13 C 5.5670034 13 4 14.567003 4 16.5 C 4 18.432997 5.5670034 20 7.5 20 C 9.4329966 20 11 18.432997 11 16.5 L 11 14 L 13 14 L 13 16.5 C 13 18.432997 14.567003 20 16.5 20 C 18.432997 20 20 18.432997 20 16.5 C 20 14.567003 18.432997 13 16.5 13 L 14 13 L 14 11 L 16.5 11 C 18.432997 11 20 9.4329966 20 7.5 C 20 5.5670034 18.432997 4 16.5 4 C 14.567003 4 13 5.5670034 13 7.5 L 13 10 L 11 10 L 11 7.5 C 11 5.5670034 9.4329966 4 7.5 4 z M 7.5 5 C 8.8807119 5 10 6.1192881 10 7.5 L 10 10 L 7.5 10 C 6.1192881 10 5 8.8807119 5 7.5 C 5 6.1192881 6.1192881 5 7.5 5 z M 16.5 5 C 17.880712 5 19 6.1192881 19 7.5 C 19 8.8807119 17.880712 10 16.5 10 L 14 10 L 14 7.5 C 14 6.1192881 15.119288 5 16.5 5 z M 11 11 L 13 11 L 13 13 L 11 13 L 11 11 z M 7.5 14 L 10 14 L 10 16.5 C 10 17.880712 8.8807119 19 7.5 19 C 6.1192881 19 5 17.880712 5 16.5 C 5 15.119288 6.1192881 14 7.5 14 z M 14 14 L 16.5 14 C 17.880712 14 19 15.119288 19 16.5 C 19 17.880712 17.880712 19 16.5 19 C 15.119288 19 14 17.880712 14 16.5 L 14 14 z "
     />
 </svg>
